X: 1
T: Ballintore Fancy, The
M: 12/8
L: 1/8
R: slide
K: Gmaj
|: D | G2 B B^AB G2 B d2 B | G2 B BGD F2 A cAF | 
G2 B BDF G2 B d2 g | e2 c A2 G F2 G AF :|
|: A | B2 E E^DE B2 E G2 A | B2 E E2 c A2 D F2 A |
B2 E E3 c2 A B2 G |[1 A2 D F2 G A2 D G2 :|[2 A3 EFG A2 c cA |]
